spyder/images/projects.svg

<svg width="300" height="200" viewBox="0 0 300 200" fill="none" xmlns="http://www.w3.org/2000/svg">
<path d="M91 34C92.1046 34 93 34.8954 93 36V43H100C101.105 43 102 43.8954 102 45C102 46.1046 101.105 47 100 47H93V54C93 55.1046 92.1046 56 91 56C89.8954 56 89 55.1046 89 54V47H82C80.8954 47 80 46.1046 80 45C80 43.8954 80.8954 43 82 43H89V36C89 34.8954 89.8954 34 91 34Z" fill="#336E9E"/>
<path d="M229 74C229 72.8954 228.105 72 227 72C225.895 72 225 72.8954 225 74V81H218C216.895 81 216 81.8954 216 83C216 84.1046 216.895 85 218 85H225V92C225 93.1046 225.895 94 227 94C228.105 94 229 93.1046 229 92V85H236C237.105 85 238 84.1046 238 83C238 81.8954 237.105 81 236 81H229V74Z" fill="#336E9E"/>
<path d="M78 146C78 144.895 77.1046 144 76 144C74.8954 144 74 144.895 74 146V153H67C65.8954 153 65 153.895 65 155C65 156.105 65.8954 157 67 157H74V164C74 165.105 74.8954 166 76 166C77.1046 166 78 165.105 78 164V157H85C86.1046 157 87 156.105 87 155C87 153.895 86.1046 153 85 153H78V146Z" fill="#336E9E"/>
<path d="M164 90C165.105 90 166 90.8954 166 92C166 93.1046 165.105 94 164 94H140C138.895 94 138 93.1046 138 92C138 90.8954 138.895 90 140 90H164Z" fill="#336E9E"/>
<path d="M174 104C175.105 104 176 104.895 176 106C176 107.105 175.105 108 174 108H140C138.895 108 138 107.105 138 106C138 104.895 138.895 104 140 104H174Z" fill="#336E9E"/>
<path d="M214 69.5C214 70.8807 212.881 72 211.5 72C210.119 72 209 70.8807 209 69.5C209 68.1193 210.119 67 211.5 67C212.881 67 214 68.1193 214 69.5Z" fill="#336E9E"/>
<path d="M64.5 143C65.8807 143 67 141.881 67 140.5C67 139.119 65.8807 138 64.5 138C63.1193 138 62 139.119 62 140.5C62 141.881 63.1193 143 64.5 143Z" fill="#336E9E"/>
<path d="M93 66.5C93 67.8807 91.8807 69 90.5 69C89.1193 69 88 67.8807 88 66.5C88 65.1193 89.1193 64 90.5 64C91.8807 64 93 65.1193 93 66.5Z" fill="#336E9E"/>
<path d="M77.5 59C78.8807 59 80 57.8807 80 56.5C80 55.1193 78.8807 54 77.5 54C76.1193 54 75 55.1193 75 56.5C75 57.8807 76.1193 59 77.5 59Z" fill="#336E9E"/>
<path d="M203 78.5C203 79.8807 201.881 81 200.5 81C199.119 81 198 79.8807 198 78.5C198 77.1193 199.119 76 200.5 76C201.881 76 203 77.1193 203 78.5Z" fill="#336E9E"/>
<path d="M134 78H179C184.523 78 189 82.4771 189 88V116H185V88C185 84.6863 182.314 82 179 82H134C130.686 82 128 84.6863 128 88V109L124 113.75V88C124 82.4772 128.477 78 134 78Z" fill="#336E9E"/>
<path d="M120 64H164.556C170.079 64 174.556 68.4771 174.556 74H170.556C170.556 70.6863 167.87 68 164.556 68H120C116.686 68 114 70.6863 114 74V125.375L110.539 129.485C110.19 128.466 110 127.374 110 126.237V74C110 68.4771 114.477 64 120 64Z" fill="#336E9E"/>
<path fill-rule="evenodd" clip-rule="evenodd" d="M98 152V96C98 92.6863 100.686 90 104 90H106V94H104C102.895 94 102 94.8954 102 96V147.429L131.805 113.366C132.564 112.498 133.662 112 134.815 112H156.219C159.303 112 161.122 115.459 159.375 118C158.793 118.847 159.399 120 160.427 120H220.767C224.269 120 226.08 124.181 223.685 126.736L201.185 150.736C200.429 151.542 199.373 152 198.267 152H98ZM134.815 116L106.815 148H194C194.039 148 194.079 148 194.118 148L194.265 148.001C194.448 148.003 194.634 148.004 194.818 148H197C198.206 148 199.179 147.053 199.998 146.154L220.767 124H160.427C156.285 124 153.799 119.471 155.907 116H134.815Z" fill="#336E9E"/>
<path d="M194 90H193V94H194C195.105 94 196 94.8954 196 96V116H200V96C200 92.6863 197.314 90 194 90Z" fill="#336E9E"/>
</svg>

<svg xmlns="http://www.w3.org/2000/svg" width="300" height="200" fill="none"><path fill="#336E9E" d="M91 34a2 2 0 0 1 2 2v7h7a2 2 0 1 1 0 4h-7v7a2 2 0 1 1-4 0v-7h-7a2 2 0 1 1 0-4h7v-7a2 2 0 0 1 2-2ZM229 74a2 2 0 1 0-4 0v7h-7a2 2 0 1 0 0 4h7v7a2 2 0 1 0 4 0v-7h7a2 2 0 1 0 0-4h-7v-7ZM78 146a2 2 0 1 0-4 0v7h-7a2 2 0 1 0 0 4h7v7a2 2 0 1 0 4 0v-7h7a2 2 0 1 0 0-4h-7v-7ZM164 90a2 2 0 1 1 0 4h-24a2 2 0 1 1 0-4h24ZM174 104a2 2 0 1 1 0 4h-34a2 2 0 1 1 0-4h34ZM214 69.5a2.5 2.5 0 1 1-5 0 2.5 2.5 0 0 1 5 0ZM64.5 143a2.5 2.5 0 1 0 0-5 2.5 2.5 0 0 0 0 5ZM93 66.5a2.5 2.5 0 1 1-5 0 2.5 2.5 0 0 1 5 0ZM77.5 59a2.5 2.5 0 1 0 0-5 2.5 2.5 0 0 0 0 5ZM203 78.5a2.5 2.5 0 1 1-5 0 2.5 2.5 0 0 1 5 0Z"/><path fill="#336E9E" d="M134 78h45c5.523 0 10 4.477 10 10v28h-4V88a6 6 0 0 0-6-6h-45a6 6 0 0 0-6 6v21l-4 4.75V88c0-5.523 4.477-10 10-10Z"/><path fill="#336E9E" d="M120 64h44.556c5.523 0 10 4.477 10 10h-4a6 6 0 0 0-6-6H120a6 6 0 0 0-6 6v51.375l-3.461 4.11a10.004 10.004 0 0 1-.539-3.248V74c0-5.523 4.477-10 10-10Z"/><path fill="#336E9E" fill-rule="evenodd" d="M98 152V96a6 6 0 0 1 6-6h2v4h-2a2 2 0 0 0-2 2v51.429l29.805-34.063a4 4 0 0 1 3.01-1.366h21.404c3.084 0 4.903 3.459 3.156 6-.582.847.024 2 1.052 2h60.34c3.502 0 5.313 4.181 2.918 6.736l-22.5 24a4 4 0 0 1-2.918 1.264H98Zm36.815-36-28 32h87.303l.147.001c.183.002.369.003.553-.001H197c1.206 0 2.179-.947 2.998-1.846L220.767 124h-60.34c-4.142 0-6.628-4.529-4.52-8h-21.092Z" clip-rule="evenodd"/><path fill="#336E9E" d="M194 90h-1v4h1a2 2 0 0 1 2 2v20h4V96a6 6 0 0 0-6-6Z"/></svg>
